X:113
T:Gloucestershire Hornpipe, aka. JC.174
R:hp 32
S:John Clare,Poet,Helpstone (1793-1864)
N:Untitled in MS
O:England
A:Northamptonshire
Z:vmp.P. Headford
M:C|
L:1/8
Q:2/4=90
K:D
AF|\
D3d dAGF|G3B BcdB|AFAE BAGF|EFGE DCB,A,|!
D3d dAGF|G3B BcdB|AFAF BGEC|D2D2 D2:|!
|:z2|FDFD F/G/AA2|BGBG cde2|AFAF BAGF|EFGE DCB,G,|!
FDFD FGA2|BGBG Bcd2|FAFA BGEC|D2D2 D2:|

